icons/linkedin.svg

<svg width="24" height="24" viewBox="0 0 24 24" fill="none" xmlns="http://www.w3.org/2000/svg">
<path fill-rule="evenodd" clip-rule="evenodd" d="M3.5896 6.71409H3.55856C2.00635 6.71409 1 5.67548 1 4.35897C1 3.01684 2.0361 2 3.61936 2C5.20132 2 6.17404 3.01428 6.20508 4.35513C6.20508 5.67164 5.20132 6.71409 3.5896 6.71409ZM23 22H18.1377V14.9692C18.1377 13.1288 17.3772 11.8725 15.7046 11.8725C14.4254 11.8725 13.7139 12.7203 13.3828 13.5374C13.2735 13.7956 13.2754 14.1432 13.2775 14.5014L13.2775 14.5018C13.2778 14.5503 13.278 14.599 13.278 14.6477V22H8.461C8.461 22 8.52309 9.54558 8.461 8.41348H13.278V10.5458C13.5626 9.61345 15.1019 8.28285 17.5582 8.28285C20.6058 8.28285 23 10.2371 23 14.4454V22ZM5.84285 8.41351H1.55487V22H5.84285V8.41351Z" fill="#686A70"/>
</svg>

<svg class="icon" xmlns="http://www.w3.org/2000/svg" width="24" height="24" viewBox="0 0 24 24">
    <g fill="none" fill-rule="evenodd">
        <g fill="#FFFFFF" fill-rule="nonzero">
            <g>
                <path d="M23 22h-4.862v-7.03c0-1.841-.76-3.097-2.433-3.097-1.28 0-1.991.847-2.322 1.664-.124.294-.105.702-.105 1.11V22H8.461s.062-12.454 0-13.586h4.817v2.132c.285-.933 1.824-2.263 4.28-2.263 3.048 0 5.442 1.954 5.442 6.162V22zM3.59 6.714h-.031C2.006 6.714 1 5.675 1 4.36 1 3.017 2.036 2 3.62 2 5.2 2 6.173 3.014 6.204 4.355c0 1.317-1.004 2.36-2.615 2.36zm-2.035 1.7h4.288V22H1.555V8.414z" transform="translate(-332 -388) translate(212 388) translate(120)"/>
            </g>
        </g>
    </g>
</svg>
